X:663
T:Reel 663
M:4/4
K:Dmaj
L:1/8
 (3DCB, |A,2DF EDEG|FABc d2cd| (3Bcd AF GFEF||GEFD E2B,A,:||2B,DDE D2D2|AGAB AFAc|dcec d2d2|B>dAd Bcde|fedc d2d2|A>d (3dcd f>d (3dcd |ABdF AFDF|GBGA BGAG|FGEF D2|
